X: 1654
T: Annie's Favourite
R: hornpipe
M: 4/4
K: Gmajor
dB|:~G2 BG ABcA|d~g3 dedc|(3.B.c.d BG (3ABc AF|1 ~G2AF DEFD:|2 G2GF GABd||
gfga gfdf|gfga gfde|fefg afge|fdeA d3c|
(3.B.c.B BG AGFD|(3.B.c.B BG AGFD|(3.B.c.B BG (3.A.c.A AF|~G2GF GABd|
gfga gfdf|gfga gfde|fefg (3.a.g.f (3.g.f.e|fdeA .d2.g2|
(3.B.c.B GB AGFD|(3.B.c.B BG AGFD|(3.B.c.B BG (3.A.c.A AF|~G2 GF G2|

